packages/core/src/svgs/tokens/mono/KICKS.svg

<svg width="24" height="24" viewBox="0 0 24 24" fill="none" xmlns="http://www.w3.org/2000/svg">
<path d="M7.44706 9.04794L7.65141 8.30446H4.51228C4.19111 8.30279 3.87924 8.41228 3.62961 8.61437C3.37998 8.81646 3.20794 9.09868 3.14271 9.41316L2.88619 10.687C2.86044 10.821 2.86476 10.9591 2.89885 11.0912C2.93293 11.2234 2.99592 11.3462 3.08327 11.4511C3.17062 11.5559 3.28016 11.64 3.40397 11.6974C3.52779 11.7548 3.66279 11.7839 3.79923 11.7827H6.7514L7.21663 10.0436H5.95576L5.72532 10.6958H4.60358C4.56355 10.6969 4.52379 10.6888 4.48739 10.672C4.451 10.6553 4.41895 10.6304 4.39372 10.5993C4.3685 10.5682 4.35078 10.5317 4.34193 10.4926C4.33309 10.4536 4.33335 10.413 4.34271 10.374L4.54271 9.58707C4.55737 9.52926 4.59109 9.47808 4.63843 9.44179C4.68576 9.4055 4.74395 9.38622 4.80358 9.38708H6.99488C7.20792 9.38708 7.39053 9.24794 7.44706 9.04794ZM13.0949 13.3957L13.3036 12.6523H10.608C10.2857 12.6503 9.97259 12.7594 9.72151 12.9614C9.47043 13.1634 9.29671 13.4458 9.22966 13.7609L8.97315 15.0349C8.94732 15.1693 8.95172 15.3077 8.98605 15.4401C9.02037 15.5726 9.08376 15.6957 9.17159 15.8007C9.25943 15.9056 9.36952 15.9896 9.49388 16.0466C9.61823 16.1037 9.75377 16.1323 9.89052 16.1306H12.5688L12.8035 15.0436H10.6949C10.6548 15.0447 10.6151 15.0366 10.5787 15.0198C10.5423 15.0031 10.5103 14.9782 10.485 14.9471C10.4598 14.916 10.4421 14.8795 10.4333 14.8405C10.4243 14.8014 10.4247 14.7608 10.434 14.7219L10.6384 13.9349C10.653 13.8771 10.6867 13.8259 10.7341 13.7896C10.7814 13.7533 10.8396 13.7341 10.8992 13.7349H12.6384C12.8558 13.7349 13.0384 13.5958 13.0905 13.3957H13.0949Z" fill="white"/>
<path fill-rule="evenodd" clip-rule="evenodd" d="M7.9216 9.4126C7.99522 9.09345 8.17614 8.80924 8.43411 8.60745C8.6921 8.40566 9.01151 8.29851 9.33899 8.30391H10.9346C11.5433 8.30391 11.9999 8.83434 11.8825 9.39956L11.652 10.4778H9.17377C9.11612 10.4778 9.06083 10.5007 9.02005 10.5415C8.97928 10.5823 8.95638 10.6376 8.95638 10.6952C8.95638 10.7528 8.97928 10.8081 9.02005 10.8489C9.06083 10.8897 9.11612 10.9126 9.17377 10.9126H11.565L11.3868 11.7821H8.68681C8.03465 11.7821 7.54769 11.217 7.67377 10.6083L7.9216 9.4126ZM9.39117 9.39086C9.39117 9.26912 9.48682 9.17347 9.6086 9.17347H10.4781C10.5357 9.17347 10.591 9.19637 10.6318 9.23714C10.6726 9.27791 10.6955 9.33321 10.6955 9.39086C10.6955 9.44852 10.6726 9.50381 10.6318 9.54458C10.591 9.58535 10.5357 9.60825 10.4781 9.60825H9.6086C9.55088 9.60825 9.49561 9.58535 9.45483 9.54458C9.41407 9.50381 9.39117 9.44852 9.39117 9.39086Z" fill="white"/>
<path d="M12.8696 9.39112L12.5521 10.9999C12.5329 11.0942 12.5348 11.1917 12.5577 11.2853C12.5805 11.3789 12.624 11.4662 12.6846 11.5411C12.7453 11.616 12.8219 11.6764 12.9087 11.7181C12.9956 11.7598 13.0906 11.7818 13.1869 11.7824H15.187L15.4782 10.6955H13.9565L14.2435 9.39112H14.5174C14.8869 9.39112 15.3348 9.052 15.4086 8.68243L15.4782 8.30418H14.4435L14.5391 7.86938H13.1479L13.0608 8.30418H12.6261L12.4348 9.39112H12.8696ZM7.53043 12.652H8.95651L8.20869 16.1302H6.7826L7.53043 12.652ZM15.0304 13.5954L15.2131 12.652H13.9173L13.2348 16.1302H14.5304L14.6782 15.3911L15.113 14.9477L15.8956 16.1302H17.3913L16.1217 14.1607L17.6522 12.652C16.6956 12.6738 15.7739 13.0042 15.0304 13.5954ZM2.68261 12.652H3.9826L3.72173 13.9563H4.13477L5.42174 12.652H6.80434L5.29129 14.4259L6.34782 16.1302H5.86521C5.20434 15.8607 4.34348 15.3389 4.14348 14.5564C4.04347 14.5781 3.81304 14.6346 3.65652 14.6867C3.57391 14.7129 3.5 14.7607 3.43478 14.8042C3.33913 14.8693 3.26087 14.9216 3.2 14.8824C3.12173 14.8303 3.0826 14.6867 3.06956 14.6216C3.15652 14.665 3.33913 14.739 3.36521 14.6867C3.39565 14.6216 3.33043 14.3563 3.06956 14.3563C2.80869 14.3563 2.67826 14.7868 2.67826 15.1476C2.67826 15.5085 2.93913 15.6041 3.06956 15.6041H3.09565C3.27391 15.6041 3.92608 15.5955 4.13913 16.0302L4.0739 16.0041C3.91304 15.9346 3.66522 15.8303 3.3 15.8042C3.08838 15.7954 2.87972 15.7512 2.68261 15.6737C2.73478 15.7607 2.8913 15.9346 3.07391 15.9346C3.27391 15.9346 3.66086 15.9607 3.85652 16.1302H2L2.68261 12.652ZM21.9131 13.1041L22 12.652H19.2086C18.9093 12.6554 18.6233 12.7772 18.4132 12.9905C18.2031 13.2038 18.0858 13.4917 18.0869 13.7911V14.0302C18.0869 14.4303 18.3913 14.7694 18.7739 14.8259L20.5391 15.0955H18.4217C18.0739 15.0955 17.7696 15.3563 17.7173 15.7129L17.6522 16.1302H20.6044C21.1522 16.1302 21.5043 15.6911 21.5391 15.1303L21.5652 14.7172C21.5913 14.3172 21.3913 13.9694 21 13.9477L19.6434 13.8607C19.6219 13.8585 19.6019 13.8485 19.5875 13.8323C19.573 13.8163 19.5651 13.7954 19.5652 13.7737C19.5652 13.7303 19.6043 13.6867 19.6522 13.6867H21.226C21.5608 13.6867 21.8522 13.4433 21.9173 13.1041H21.9131Z" fill="white"/>
</svg>

<svg xmlns="http://www.w3.org/2000/svg" width="24" height="24" fill="none" viewBox="0 0 24 24">
    <path fill="#fff" d="m7.447 9.048.204-.744H4.512a1.39 1.39 0 0 0-1.37 1.11l-.256 1.273a.922.922 0 0 0 .913 1.096h2.952l.466-1.74H5.956l-.23.653H4.603a.26.26 0 0 1-.261-.322l.2-.787a.265.265 0 0 1 .26-.2h2.192c.213 0 .396-.14.452-.34m5.648 4.348.209-.744h-2.696a1.4 1.4 0 0 0-1.378 1.109l-.257 1.274a.92.92 0 0 0 .918 1.096h2.678l.234-1.087h-2.108a.26.26 0 0 1-.261-.322l.204-.787a.265.265 0 0 1 .261-.2h1.74c.217 0 .4-.14.452-.34z"/>
    <path fill="#fff" fill-rule="evenodd" d="M7.922 9.413a1.43 1.43 0 0 1 1.417-1.11h1.596c.608 0 1.065.531.947 1.097l-.23 1.078H9.174a.217.217 0 1 0 0 .435h2.391l-.178.87h-2.7c-.652 0-1.14-.566-1.013-1.175zm1.47-.022c0-.122.095-.218.217-.218h.87a.217.217 0 0 1 0 .435h-.87a.217.217 0 0 1-.218-.217" clip-rule="evenodd"/>
    <path fill="#fff" d="M12.87 9.391 12.552 11a.653.653 0 0 0 .635.782h2l.291-1.087h-1.521l.286-1.304h.274c.37 0 .818-.339.892-.709l.07-.378h-1.035l.095-.435h-1.391l-.087.435h-.435l-.191 1.087zm-5.34 3.261h1.427l-.748 3.478H6.783zm7.5.943.183-.943h-1.296l-.682 3.478h1.295l.148-.739.435-.443.783 1.182h1.495l-1.27-1.97 1.531-1.508a4.37 4.37 0 0 0-2.622.943m-12.347-.943h1.3l-.261 1.304h.413l1.287-1.304h1.382l-1.513 1.774 1.057 1.704h-.483c-.66-.27-1.522-.791-1.722-1.574-.1.022-.33.079-.486.13a1 1 0 0 0-.222.118c-.096.065-.174.118-.235.078-.078-.052-.117-.195-.13-.26.087.043.27.117.295.065.03-.065-.035-.33-.295-.33-.261 0-.392.43-.392.79s.261.457.392.457h.026c.178 0 .83-.008 1.043.426l-.065-.026a2.2 2.2 0 0 0-.774-.2 1.9 1.9 0 0 1-.617-.13c.052.087.208.26.39.26.2 0 .588.027.784.196H2zm19.23.452.087-.452h-2.791a1.135 1.135 0 0 0-1.122 1.14v.238c0 .4.304.74.687.796l1.765.27h-2.117a.72.72 0 0 0-.705.617l-.065.417h2.952c.548 0 .9-.439.935-1l.026-.413c.026-.4-.174-.748-.565-.77l-1.357-.086a.086.086 0 0 1-.078-.087.09.09 0 0 1 .087-.087h1.574a.71.71 0 0 0 .691-.583z"/>
</svg>
